  ; generated by PrusaSlicer 2.5.0+win64 on 2022-10-26 at 04:18:02 UTC
  
  ; 
  
  ; external perimeters extrusion width = 0.45mm
  ; perimeters extrusion width = 0.45mm
  ; infill extrusion width = 0.45mm
  ; solid infill extrusion width = 0.45mm
  ; top infill extrusion width = 0.40mm
  ; first layer extrusion width = 0.42mm
  
  M107
  M190 S60 ; set bed temperature and wait for it to be reached
  M104 S200 ; set temperature
  ;TYPE:Custom
  G28 ; home all axes
  G1 Z5 F5000 ; lift nozzle
  M109 S200 ; set temperature and wait for it to be reached
  G21 ; set units to millimeters
  G90 ; use absolute coordinates
  M82 ; use absolute distances for extrusion
  G92 E0
  ; Filament gcode
  M107
  ;LAYER_CHANGE
  ;Z:0.35
  ;HEIGHT:0.35
  G1 Z0.35 F7800
  G1 E-2 F2400
  G92 E0
  G1 X77.723 Y75.625 F7800
  G1 E2 F2400
  ;TYPE:Skirt/Brim
  ;WIDTH:0.42
  G1 F1800
  G1 X79.467 Y74.293 E2.11009
  G1 X80.588 Y73.712 E2.17349
  G1 X82.731 Y73.047 E2.28611
  G1 X84.132 Y73.029 E2.3564
  G1 X84.671 Y73.074 E2.38356
  G1 X86.447 Y73.482 E2.47499
  G1 X106.914 Y81.45 E3.57727
  G1 X108.804 Y82.66 E3.68989
  G1 X109.685 Y83.669 E3.75712
  G1 X110.056 Y84.197 E3.78948
  G1 X111 Y86.233 E3.9021
  G1 X111.199 Y87.514 E3.96718
  G1 X111.264 Y88.776 E4.03058
  G1 X110.997 Y90.953 E4.14067
  G1 X110.551 Y92.418 E4.21752
  G1 X110.046 Y93.618 E4.28286
  G1 X109.218 Y95.128 E4.3693
  G1 X108.493 Y96.182 E4.4335
  G1 X107.442 Y97.423 E4.51512
  G1 X105.686 Y99.081 E4.63629
  G1 X103.746 Y100.437 E4.75511
  G1 X102.436 Y101.085 E4.82844
  G1 X101.188 Y101.531 E4.89495
  G1 X99.072 Y101.902 E5.00277
  G1 X97.649 Y101.904 E5.07418
  G1 X95.746 Y101.592 E5.17098
  G1 X79.688 Y96.36 E6.01854
  G1 X77.809 Y95.374 E6.12503
  G1 X76.519 Y94.383 E6.20669
  G1 X74.982 Y92.605 E6.32462
  G1 X74.311 Y91.45 E6.39168
  G1 X73.592 Y89.589 E6.4918
  G1 X73.31 Y88.124 E6.56668
  G1 X73.206 Y86.717 E6.63745
  G1 X73.281 Y85.092 E6.71909
  G1 X73.648 Y83.01 E6.82522
  G1 X73.934 Y81.941 E6.88075
  G1 X74.537 Y80.268 E6.96999
  G1 X75.018 Y79.277 E7.02528
  G1 X75.921 Y77.767 E7.11357
  G1 X76.685 Y76.751 E7.17738
  G1 X77.682 Y75.669 E7.25123
  G1 E5.25123 F2400
  G92 E0
  G1 X97.25 Y90.155 F7800
  G1 E2 F2400
  ;TYPE:Perimeter
  ;WIDTH:0.42
  G1 F1800
  G1 X98.133 Y89.336 E2.06041
  G1 X99.193 Y88.643 E2.12397
  G1 X100.545 Y87.966 E2.19989
  G1 X101.572 Y87.737 E2.25267
  G1 X102.023 Y87.675 E2.27552
  G1 X103.112 Y87.722 E2.33023
  G1 X103.907 Y88.047 E2.37334
  G1 X103.981 Y88.208 E2.38219
  G1 X104.021 Y88.993 E2.42163
  G1 X103.648 Y90.218 E2.48591
  G1 X102.909 Y91.567 E2.56312
  G1 X101.955 Y92.692 E2.63715
  G1 X100.904 Y93.638 E2.70812
  G1 X99.894 Y94.3 E2.76869
  G1 X98.893 Y94.658 E2.82204
  G1 X97.887 Y94.659 E2.87255
  G1 X96.893 Y94.255 E2.92642
  G1 X96.357 Y93.553 E2.97075
  G1 X96.229 Y92.472 E3.02536
  G1 X96.504 Y91.306 E3.08548
  G1 X97.206 Y90.195 E3.15143
  G1 X97.016 Y89.902 F7800
  G1 F1800
  G1 X97.919 Y89.063 E3.21331
  G1 X99.02 Y88.343 E3.27933
  G1 X100.429 Y87.638 E3.35839
  G1 X101.647 Y87.367 E3.42101
  G1 X102.032 Y87.33 E3.44041
  G1 X103.187 Y87.38 E3.49844
  G1 X104.131 Y87.766 E3.54965
  G1 X104.317 Y88.03 E3.56583
  G1 X104.369 Y89.035 E3.61632
  G1 X103.967 Y90.352 E3.68542
  G1 X103.194 Y91.763 E3.76618
  G1 X102.203 Y92.933 E3.84312
  G1 X101.115 Y93.912 E3.91658
  G1 X100.049 Y94.611 E3.98054
  G1 X98.953 Y95.003 E4.03894
  G1 X97.82 Y95.004 E4.09583
  G1 X96.675 Y94.539 E4.15783
  G1 X96.026 Y93.687 E4.21161
  G1 X95.879 Y92.452 E4.27401
  G1 X96.181 Y91.172 E4.34
  G1 X96.902 Y90.007 E4.40874
  G1 X96.972 Y89.943 E4.41352
  G1 X96.781 Y89.649 F7800
  ;TYPE:External perimeter
  G1 F1800
  G1 X97.706 Y88.79 E4.47687
  G1 X98.848 Y88.044 E4.54536
  G1 X100.313 Y87.311 E4.62754
  G1 X101.787 Y86.983 E4.70336
  G1 X103.262 Y87.038 E4.77741
  G1 X104.356 Y87.486 E4.83671
  G1 X104.656 Y87.913 E4.86295
  G1 X104.716 Y89.078 E4.92146
  G1 X104.287 Y90.487 E4.99539
  G1 X103.48 Y91.96 E5.07968
  G1 X102.451 Y93.174 E5.15954
  G1 X101.326 Y94.186 E5.23549
  G1 X100.204 Y94.922 E5.30284
  G1 X99.014 Y95.348 E5.36628
  G1 X97.753 Y95.349 E5.42956
  G1 X96.458 Y94.823 E5.49968
  G1 X95.694 Y93.821 E5.56292
  G1 X95.53 Y92.432 E5.6331
  G1 X95.858 Y91.038 E5.70497
  G1 X96.633 Y89.786 E5.77886
  G1 X96.737 Y89.69 E5.78598
  G1 X97.171 Y89.736 F7800
  G1 E3.78598 F2400
  G92 E0
  G1 X102.807 Y87.812 F7800
  G1 E2 F2400
  ;TYPE:Solid infill
  ;WIDTH:0.428142
  G1 F1800
  G1 X103.75 Y88.755 E2.06851
  G1 X103.761 Y88.961 E2.07907
  G1 X103.689 Y89.194 E2.0916
  G1 X102.448 Y87.952 E2.18181
  G1 X101.929 Y87.933 E2.20849
  G1 X103.573 Y89.577 E2.32793
  G1 X103.456 Y89.959 E2.34848
  G1 X101.512 Y88.016 E2.48969
  G1 X101.104 Y88.106 E2.51118
  G1 X103.304 Y90.307 E2.67103
  G1 X103.127 Y90.629 E2.68992
  G1 X100.696 Y88.197 E2.8666
  G1 X100.633 Y88.211 E2.86991
  G1 X100.351 Y88.352 E2.88609
  G1 X102.951 Y90.952 E3.07495
  G1 X102.774 Y91.274 E3.09384
  G1 X100.018 Y88.519 E3.29404
  G1 X99.686 Y88.685 E3.31315
  G1 X102.569 Y91.568 E3.52259
  G1 X102.339 Y91.838 E3.54079
  G1 X99.353 Y88.852 E3.75776
  G1 X99.048 Y89.046 E3.77634
  G1 X102.11 Y92.108 E3.99881
  G1 X101.881 Y92.379 E4.01701
  G1 X98.746 Y89.243 E4.24478
  G1 X98.444 Y89.441 E4.26331
  G1 X101.635 Y92.632 E4.49513
  G1 X101.373 Y92.868 E4.51329
  G1 X98.164 Y89.66 E4.74641
  G1 X97.905 Y89.9 E4.76456
  G1 X101.11 Y93.105 E4.9974
  G1 X100.847 Y93.342 E5.01556
  G1 X97.646 Y90.14 E5.24813
  G1 X97.387 Y90.381 E5.26628
  G1 X100.561 Y93.554 E5.49683
  G1 X100.259 Y93.752 E5.51536
  G1 X97.192 Y90.685 E5.73814
  G1 X97.001 Y90.994 E5.75677
  G1 X99.957 Y93.949 E5.97151
  G1 X99.778 Y94.067 E5.9825
  G1 X99.629 Y94.12 E5.99066
  G1 X96.811 Y91.302 E6.19539
  G1 X96.746 Y91.406 E6.20169
  G1 X96.683 Y91.674 E6.2158
  G1 X99.261 Y94.252 E6.4031
  G1 X98.893 Y94.383 E6.42316
  G1 X96.588 Y92.078 E6.59066
  G1 X96.492 Y92.482 E6.61198
  G1 X98.411 Y94.4 E6.75135
  G1 X97.937 Y94.401 E6.77567
  G1 X97.895 Y94.383 E6.77803
  G1 X96.38 Y92.869 E6.88807
  G1 E4.88807 F2400
  G92 E0
  G1 X85.548 Y86.212 F7800
  G1 E2 F2400
  ;TYPE:Perimeter
  ;WIDTH:0.42
  G1 F1800
  G1 X85.342 Y87.191 E2.05022
  G1 X84.997 Y87.838 E2.08702
  G1 X84.671 Y88.393 E2.1193
  G1 X83.847 Y89.143 E2.17525
  G1 X82.868 Y89.573 E2.22891
  G1 X82.009 Y89.465 E2.27237
  G1 X81.156 Y88.81 E2.3263
  G1 X80.651 Y87.941 E2.37676
  G1 X80.45 Y86.89 E2.43049
  G1 X80.5 Y85.702 E2.49014
  G1 X80.746 Y84.48 E2.55273
  G1 X80.944 Y83.849 E2.58587
  G1 X81.278 Y82.924 E2.63523
  G1 X82.074 Y81.594 E2.71306
  G1 X82.942 Y80.652 E2.77734
  G1 X83.64 Y80.29 E2.81677
  G1 X83.815 Y80.272 E2.82562
  G1 X84.496 Y80.792 E2.8686
  G1 X85.177 Y81.862 E2.93223
  G1 X85.583 Y83.124 E2.99881
  G1 X85.655 Y84.757 E3.08082
  G1 X85.609 Y85.923 E3.13937
  G1 X85.561 Y86.153 E3.15119
  G1 X85.886 Y86.283 F7800
  G1 F1800
  G1 X85.669 Y87.31 E3.20385
  G1 X85.083 Y88.412 E3.26649
  G1 X84.911 Y88.641 E3.28085
  G1 X84.037 Y89.436 E3.34017
  G1 X82.919 Y89.927 E3.40145
  G1 X81.873 Y89.795 E3.45438
  G1 X80.892 Y89.043 E3.51641
  G1 X80.323 Y88.064 E3.57324
  G1 X80.103 Y86.916 E3.63188
  G1 X80.157 Y85.655 E3.69524
  G1 X80.448 Y84.215 E3.76898
  G1 X80.966 Y82.773 E3.84584
  G1 X81.796 Y81.386 E3.92698
  G1 X82.73 Y80.374 E3.99608
  G1 X83.623 Y79.91 E4.04657
  G1 X83.944 Y79.937 E4.06275
  G1 X84.754 Y80.555 E4.11387
  G1 X85.492 Y81.714 E4.1828
  G1 X85.926 Y83.062 E4.25388
  G1 X85.999 Y84.77 E4.33971
  G1 X85.953 Y85.965 E4.39973
  G1 X85.898 Y86.224 E4.413
  G1 X86.223 Y86.354 F7800
  ;TYPE:External perimeter
  G1 F1800
  G1 X85.997 Y87.429 E4.46811
  G1 X85.303 Y88.732 E4.54222
  G1 X84.228 Y89.729 E4.61582
  G1 X82.971 Y90.281 E4.68472
  G1 X81.737 Y90.126 E4.74712
  G1 X80.628 Y89.275 E4.81726
  G1 X79.996 Y88.186 E4.88044
  G1 X79.757 Y86.942 E4.94402
  G1 X79.815 Y85.607 E5.01108
  G1 X80.115 Y84.122 E5.08711
  G1 X80.655 Y82.622 E5.16712
  G1 X81.519 Y81.178 E5.25156
  G1 X82.517 Y80.095 E5.32548
  G1 X83.552 Y79.559 E5.38399
  G1 X84.073 Y79.601 E5.41023
  G1 X85.012 Y80.318 E5.4695
  G1 X85.806 Y81.566 E5.54373
  G1 X86.268 Y82.999 E5.61931
  G1 X86.344 Y84.784 E5.70895
  G1 X86.296 Y86.008 E5.77043
  G1 X86.236 Y86.295 E5.78517
  G1 X85.849 Y86.495 F7800
  G1 E3.78517 F2400
  G92 E0
  G1 X84.818 Y81.49 F7800
  G1 E2 F2400
  ;TYPE:Solid infill
  ;WIDTH:0.432213
  G1 F1800
  G1 X84.283 Y80.955 E2.0393
  G1 X83.731 Y80.54 E2.07517
  G1 X83.487 Y80.664 E2.08938
  G1 X85.01 Y82.187 E2.20129
  G1 X85.25 Y82.932 E2.24196
  G1 X83.152 Y80.835 E2.39608
  G1 X83.101 Y80.861 E2.39906
  G1 X82.896 Y81.084 E2.41479
  G1 X85.345 Y83.532 E2.59473
  G1 X85.371 Y84.063 E2.62238
  G1 X82.654 Y81.346 E2.82205
  G1 X82.412 Y81.609 E2.84063
  G1 X85.397 Y84.595 E3.06004
  G1 X85.383 Y85.086 E3.08556
  G1 X82.194 Y81.897 E3.31991
  G1 X82.005 Y82.212 E3.33905
  G1 X85.364 Y85.572 E3.5859
  G1 X85.352 Y85.891 E3.60249
  G1 X85.321 Y86.034 E3.6101
  G1 X81.816 Y82.528 E3.86771
  G1 X81.627 Y82.844 E3.88685
  G1 X85.233 Y86.451 E4.15189
  G1 X85.145 Y86.868 E4.17404
  G1 X81.46 Y83.182 E4.44491
  G1 X81.326 Y83.554 E4.46543
  G1 X85.019 Y87.247 E4.73681
  G1 X84.844 Y87.576 E4.75621
  G1 X81.193 Y83.925 E5.0245
  G1 X81.06 Y84.297 E5.04502
  G1 X84.668 Y87.906 E5.31023
  G1 X84.529 Y88.168 E5.32564
  G1 X84.477 Y88.22 E5.32946
  G1 X80.964 Y84.707 E5.5876
  G1 X80.88 Y85.127 E5.60988
  G1 X84.213 Y88.46 E5.85482
  G1 X83.948 Y88.701 E5.8734
  G1 X80.795 Y85.547 E6.10515
  G1 X80.757 Y85.736 E6.11516
  G1 X80.746 Y86.003 E6.12904
  G1 X83.677 Y88.935 E6.3445
  G1 X83.327 Y89.089 E6.36442
  G1 X80.725 Y86.488 E6.55558
  G1 X80.709 Y86.87 E6.57547
  G1 X80.734 Y87.002 E6.58244
  G1 X82.976 Y89.243 E6.74714
  G1 X82.829 Y89.307 E6.75544
  G1 X82.492 Y89.265 E6.77309
  G1 X80.854 Y87.627 E6.89348
  G1 X80.897 Y87.849 E6.90525
  G1 X81.348 Y88.626 E6.95192
  G1 X82.093 Y89.371 E7.00669
  ;LAYER_CHANGE
  ;Z:0.65
  ;HEIGHT:0.3
  G1 Z0.65 F7800
  G1 E5.00669 F2400
  G92 E0
  G1 X97.345 Y90.196 F7800
  G1 E2 F2400
  ;TYPE:Perimeter
  ;WIDTH:0.45
  G1 F900
  G1 X98.178 Y89.426 E2.05455
  G1 X99.239 Y88.745 E2.11521
  G1 X100.572 Y88.077 E2.18688
  G1 X101.861 Y87.797 E2.25036
  G1 X102.617 Y87.804 E2.28671
  G1 X103.141 Y87.826 E2.31195
  G1 X103.856 Y88.113 E2.34897
  G1 X103.887 Y88.159 E2.35163
  G1 X103.915 Y88.938 E2.38913
  G1 X103.536 Y90.151 E2.45024
  G1 X102.81 Y91.482 E2.52317
  G1 X101.853 Y92.64 E2.59544
  G1 X100.843 Y93.565 E2.66132
  G1 X99.849 Y94.233 E2.71892
  G1 X98.875 Y94.57 E2.76849
  G1 X97.906 Y94.566 E2.81507
  G1 X96.929 Y94.178 E2.86564
  G1 X96.432 Y93.53 E2.90491
  G1 X96.3 Y92.46 E2.95676
  G1 X96.412 Y91.969 E2.98099
  G1 X96.58 Y91.361 E3.01134
  G1 X97.244 Y90.29 E3.07194
  G1 X97.301 Y90.237 E3.07569
  G1 X97.084 Y89.913 F7800
  G1 F900
  G1 X97.941 Y89.12 E3.13188
  G1 X99.048 Y88.409 E3.19515
  G1 X100.442 Y87.711 E3.27015
  G1 X101.822 Y87.411 E3.33804
  G1 X103.224 Y87.444 E3.4055
  G1 X104.119 Y87.803 E3.4519
  G1 X104.272 Y88.021 E3.46468
  G1 X104.304 Y88.985 E3.5111
  G1 X103.893 Y90.302 E3.57745
  G1 X103.129 Y91.702 E3.65414
  G1 X102.136 Y92.903 E3.72909
  G1 X101.08 Y93.87 E3.79799
  G1 X100.022 Y94.581 E3.85928
  G1 X98.939 Y94.956 E3.91441
  G1 X97.832 Y94.952 E3.96767
  G1 X96.688 Y94.497 E4.02686
  G1 X96.062 Y93.682 E4.07629
  G1 X95.909 Y92.441 E4.13645
  G1 X96.038 Y91.875 E4.16435
  G1 X96.223 Y91.205 E4.19779
  G1 X96.944 Y90.043 E4.26357
  G1 X97.04 Y89.954 E4.26983
  G1 X96.822 Y89.63 F7800
  ;TYPE:External perimeter
  G1 F900
  G1 X97.704 Y88.814 E4.32765
  G1 X98.857 Y88.074 E4.39354
  G1 X100.313 Y87.344 E4.47186
  G1 X101.782 Y87.025 E4.54416
  G1 X102.637 Y87.033 E4.58529
  G1 X103.306 Y87.061 E4.61751
  G1 X104.369 Y87.488 E4.67259
  G1 X104.657 Y87.898 E4.69668
  G1 X104.694 Y89.033 E4.75128
  G1 X104.25 Y90.453 E4.82286
  G1 X103.449 Y91.922 E4.90333
  G1 X102.953 Y92.501 E4.93997
  G1 X102.42 Y93.166 E4.98097
  G1 X101.317 Y94.175 E5.05288
  G1 X100.196 Y94.929 E5.11787
  G1 X99.003 Y95.341 E5.17857
  G1 X97.757 Y95.337 E5.23849
  G1 X96.447 Y94.816 E5.30631
  G1 X95.692 Y93.833 E5.3659
  G1 X95.518 Y92.421 E5.43436
  G1 X95.664 Y91.781 E5.46594
  G1 X95.866 Y91.049 E5.50246
  G1 X96.644 Y89.795 E5.57342
  G1 X96.778 Y89.671 E5.5822
  G1 X97.212 Y89.719 F7800
  G1 E3.5822 F2400
  G92 E0
  G1 X102.778 Y91.3 F7800
  G1 E2 F2400
  ;TYPE:Solid infill
  ;WIDTH:0.458303
  G1 F1200
  G1 X101.578 Y92.5 E2.08338
  G1 X100.664 Y93.336 E2.14422
  G1 X99.719 Y93.972 E2.2002
  G1 X99.459 Y94.062 E2.2137
  G1 X103.011 Y90.51 E2.4605
  G1 X103.269 Y90.037 E2.48695
  G1 X103.424 Y89.539 E2.51257
  G1 X98.684 Y94.28 E2.84197
  G1 X98.128 Y94.278 E2.86924
  G1 X103.619 Y88.787 E3.25075
  G1 X103.601 Y88.322 E3.27362
  G1 X103.548 Y88.301 E3.2764
  G1 X97.683 Y94.166 E3.68394
  G1 X97.284 Y94.008 E3.70501
  G1 X103.151 Y88.142 E4.11263
  G1 X103.08 Y88.113 E4.11634
  G1 X102.633 Y88.102 E4.13835
  G1 X96.974 Y93.761 E4.53155
  G1 X96.732 Y93.446 E4.55107
  G1 X102.089 Y88.089 E4.9233
  G1 X101.891 Y88.087 E4.93302
  G1 X101.435 Y88.186 E4.95595
  G1 X96.654 Y92.967 E5.28818
  G1 X96.595 Y92.469 E5.31285
  G1 X100.723 Y88.34 E5.59968
  G1 X100.669 Y88.352 E5.60244
  G1 X99.639 Y88.868 E5.65905
  G1 X96.786 Y91.721 E5.85723
  G1 X96.848 Y91.477 E5.86956
  G1 X97.462 Y90.488 E5.92676
  G1 X98.759 Y89.191 E6.01689
  G1 E4.01689 F2400
  G92 E0
  G1 X85.484 Y86.036 F7800
  G1 E2 F2400
  ;TYPE:Perimeter
  ;WIDTH:0.45
  G1 F900
  G1 X85.249 Y87.159 E2.05519
  G1 X84.662 Y88.269 E2.11554
  G1 X84.225 Y88.718 E2.1457
  G1 X83.835 Y89.073 E2.17107
  G1 X82.856 Y89.496 E2.22235
  G1 X82.056 Y89.394 E2.26115
  G1 X81.226 Y88.747 E2.31175
  G1 X80.735 Y87.913 E2.35831
  G1 X80.529 Y86.889 E2.40853
  G1 X80.599 Y85.713 E2.46521
  G1 X80.885 Y84.363 E2.53159
  G1 X81.401 Y82.965 E2.60326
  G1 X82.188 Y81.656 E2.67671
  G1 X83.043 Y80.716 E2.73782
  G1 X83.773 Y80.341 E2.77729
  G1 X84.393 Y80.821 E2.81501
  G1 X84.678 Y81.262 E2.84027
  G1 X85.066 Y81.911 E2.87661
  G1 X85.473 Y83.157 E2.93967
  G1 X85.543 Y84.754 E3.01653
  G1 X85.496 Y85.977 E3.07544
  G1 X85.861 Y86.115 F7800
  G1 F900
  G1 X85.616 Y87.292 E3.13325
  G1 X84.977 Y88.498 E3.19889
  G1 X84.493 Y88.995 E3.23228
  G1 X84.047 Y89.401 E3.2613
  G1 X82.912 Y89.892 E3.32075
  G1 X81.902 Y89.763 E3.36973
  G1 X80.931 Y89.006 E3.42894
  G1 X80.37 Y88.052 E3.48216
  G1 X80.142 Y86.92 E3.5377
  G1 X80.216 Y85.66 E3.59842
  G1 X80.514 Y84.253 E3.6676
  G1 X81.052 Y82.797 E3.74225
  G1 X81.878 Y81.425 E3.81927
  G1 X82.805 Y80.404 E3.88561
  G1 X83.654 Y79.944 E3.93203
  G1 X83.919 Y79.966 E3.9448
  G1 X84.681 Y80.557 E3.9912
  G1 X85.419 Y81.75 E4.05867
  G1 X85.856 Y83.087 E4.1263
  G1 X85.929 Y84.766 E4.20715
  G1 X85.89 Y85.976 E4.26539
  G1 X85.874 Y86.056 E4.26933
  G1 X86.239 Y86.194 F7800
  ;TYPE:External perimeter
  G1 F900
  G1 X85.982 Y87.424 E4.32976
  G1 X85.292 Y88.727 E4.40069
  G1 X84.761 Y89.273 E4.43729
  G1 X84.259 Y89.73 E4.46997
  G1 X82.968 Y90.288 E4.5376
  G1 X81.749 Y90.132 E4.59674
  G1 X80.636 Y89.265 E4.66457
  G1 X80.005 Y88.192 E4.72444
  G1 X79.755 Y86.952 E4.78531
  G1 X79.779 Y86.318 E4.81582
  G1 X79.833 Y85.608 E4.85007
  G1 X80.144 Y84.143 E4.92207
  G1 X80.703 Y82.629 E4.99969
  G1 X81.567 Y81.193 E5.08027
  G1 X82.568 Y80.092 E5.15185
  G1 X83.075 Y79.834 E5.17923
  G1 X83.565 Y79.55 E5.20647
  G1 X84.064 Y79.591 E5.23056
  G1 X84.97 Y80.292 E5.28564
  G1 X85.333 Y80.855 E5.31787
  G1 X85.772 Y81.589 E5.359
  G1 X86.238 Y83.016 E5.4312
  G1 X86.314 Y84.778 E5.51604
  G1 X86.275 Y86.022 E5.57589
  G1 X86.251 Y86.135 E5.58144
  G1 X85.866 Y86.338 F7800
  G1 E3.58144 F2400
  G92 E0
  G1 X83.388 Y89.14 F7800
  G1 E2 F2400
  ;TYPE:Solid infill
  ;WIDTH:0.458175
  G1 F1200
  G1 X84.426 Y88.097 E2.07231
  G1 X84.975 Y87.06 E2.1299
  G1 X84.992 Y86.98 E2.13395
  G1 X82.777 Y89.194 E2.28778
  G1 X82.283 Y89.131 E2.31223
  G1 X85.138 Y86.276 E2.51056
  G1 X85.218 Y85.896 E2.52963
  G1 X85.226 Y85.631 E2.54263
  G1 X81.929 Y88.928 E2.77163
  G1 X81.616 Y88.684 E2.79112
  G1 X85.244 Y85.056 E3.04313
