; generated by PrusaSlicer 2.5.0+win64 on 2022-10-25 at 19:15:44 UTC

; 

; external perimeters extrusion width = 0.45mm
; perimeters extrusion width = 0.45mm
; infill extrusion width = 0.45mm
; solid infill extrusion width = 0.45mm
; top infill extrusion width = 0.40mm
; first layer extrusion width = 0.42mm

M107
M190 S60 ; set bed temperature and wait for it to be reached
M104 S200 ; set temperature
;TYPE:Custom
G28 ; home all axes
G1 Z5 F5000 ; lift nozzle
M109 S200 ; set temperature and wait for it to be reached
G21 ; set units to millimeters
G90 ; use absolute coordinates
M82 ; use absolute distances for extrusion
G92 E0
; Filament gcode
M107
;LAYER_CHANGE
;Z:0.35
;HEIGHT:0.35
G1 Z106.65 F7800
G1 E-2 F2400
G92 E0
G1 X75.314 Y72.311 F7800
G1 E2 F2400
;TYPE:Skirt/Brim
;WIDTH:0.42
G1 F1800
G1 X77.146 Y71.015 E2.11262
G1 X78.44 Y70.572 E2.18125
G1 X81.029 Y69.988 E2.31449
G1 X82.426 Y69.832 E2.38501
G1 X97.574 Y69.832 E3.14524
G1 X98.971 Y69.988 E3.21575
G1 X101.56 Y70.572 E3.349
G1 X103.628 Y71.445 E3.46162
G1 X105.262 Y72.983 E3.57424
G1 X105.953 Y74.163 E3.64287
G1 X112.921 Y89.69 E4.49696
G1 X113.463 Y91.868 E4.60958
G1 X113.22 Y94.076 E4.72107
G1 X111.368 Y100.382 E5.05091
G1 X110.365 Y102.389 E5.16354
G1 X108.853 Y103.837 E5.2686
G1 X101.368 Y108.938 E5.72316
G1 X100.11 Y109.607 E5.79468
G1 X97.56 Y110.142 E5.92545
G1 X82.44 Y110.142 E6.68424
G1 X79.655 Y109.504 E6.82766
G1 X78.632 Y108.938 E6.88632
G1 X71.147 Y103.837 E7.34088
G1 X69.545 Y102.266 E7.4535
G1 X68.632 Y100.382 E7.55857
G1 X66.78 Y94.076 E7.88842
G1 X66.538 Y91.845 E8.00104
G1 X67.079 Y89.69 E8.11252
G1 X74.047 Y74.163 E8.96662
G1 X75.28 Y72.36 E9.07623
G1 E7.07623 F2400
G92 E0
G1 X83.917 Y81.331 F7800
G1 E2 F2400
;TYPE:Perimeter
;WIDTH:0.42
G1 F1800
G1 X79.402 Y85.864 E2.3211
G1 X78.039 Y85.221 E2.39674
G1 X79.54 Y79.895 E2.67444
G1 X79.694 Y79.745 E2.68526
G1 X79.793 Y79.55 E2.69623
G1 X80.316 Y78.091 E2.77399
G1 X81.04 Y78.52 E2.81626
G1 X81.345 Y78.63 E2.83251
G1 X81.596 Y78.66 E2.84522
G1 X81.92 Y78.636 E2.86152
G1 X82.244 Y78.47 E2.8798
G1 X82.4 Y78.27 E2.89248
G1 X82.539 Y78.481 E2.90516
G1 X82.787 Y78.648 E2.92019
G1 X83.174 Y78.722 E2.93996
G1 X83.661 Y78.545 E2.96593
G1 X83.847 Y78.403 E2.97767
G1 X83.916 Y81.271 E3.12162
G1 X84.279 Y81.456 F7800
G1 F1800
G1 X79.475 Y86.28 E3.46331
G1 X77.628 Y85.409 E3.56582
G1 X79.224 Y79.747 E3.86102
G1 X79.409 Y79.551 E3.87458
G1 X79.469 Y79.434 E3.88117
G1 X80.132 Y77.581 E3.9799
G1 X81.216 Y78.224 E4.04315
G1 X81.42 Y78.292 E4.05393
G1 X81.831 Y78.303 E4.07457
G1 X82.025 Y78.203 E4.08554
G1 X82.164 Y78.025 E4.09686
G1 X82.437 Y77.448 E4.12892
G1 X82.651 Y78.037 E4.16034
G1 X82.778 Y78.233 E4.17207
G1 X82.87 Y78.303 E4.1779
G1 X83.159 Y78.377 E4.19288
G1 X83.451 Y78.271 E4.20846
G1 X84.175 Y77.718 E4.25419
G1 X84.277 Y81.396 E4.43883
G1 X84.63 Y81.592 F7800
;TYPE:External perimeter
G1 F1800
G1 X79.548 Y86.695 E4.80031
G1 X77.217 Y85.596 E4.92966
G1 X78.936 Y79.494 E5.24783
G1 X79.075 Y79.404 E5.25614
G1 X79.144 Y79.317 E5.26168
G1 X79.948 Y77.072 E5.38139
G1 X81.392 Y77.927 E5.46561
G1 X81.741 Y77.97 E5.48327
G1 X81.852 Y77.878 E5.49053
G1 X82.48 Y76.553 E5.56407
G1 X82.975 Y77.919 E5.63698
G1 X83.067 Y78.018 E5.64376
G1 X83.242 Y77.997 E5.65259
G1 X84.504 Y77.032 E5.7323
G1 X84.607 Y81.337 E5.94839
G1 X84.662 Y81.547 E5.95927
G1 X84.23 Y81.596 F7800
G1 E3.95927 F2400
G92 E0
G1 X83.241 Y78.799 F7800
G1 E2 F2400
;TYPE:Solid infill
;WIDTH:0.420374
G1 F1800
G1 X83.606 Y79.164 E2.02596
G1 X83.618 Y79.665 E2.0511
G1 X82.891 Y78.937 E2.10278
G1 X82.681 Y78.884 E2.11364
G1 X82.557 Y78.82 E2.12069
G1 X82.383 Y78.686 E2.13169
G1 X82.243 Y78.778 E2.1401
G1 X83.63 Y80.165 E2.23869
G1 X83.642 Y80.665 E2.26383
G1 X81.883 Y78.906 E2.38884
G1 X81.635 Y78.923 E2.40133
G1 X81.383 Y78.895 E2.41405
G1 X83.654 Y81.166 E2.57542
G1 X83.656 Y81.226 E2.57847
G1 X83.442 Y81.441 E2.59371
G1 X80.503 Y78.503 E2.80249
G1 X80.453 Y78.473 E2.80541
G1 X80.33 Y78.818 E2.82379
G1 X83.198 Y81.686 E3.02758
G1 X82.955 Y81.931 E3.04493
G1 X80.201 Y79.177 E3.24057
G1 X80.072 Y79.536 E3.25975
G1 X82.711 Y82.175 E3.44724
G1 X82.467 Y82.42 E3.46459
G1 X79.919 Y79.871 E3.64567
G1 X79.772 Y80.025 E3.65635
G1 X79.731 Y80.172 E3.66399
G1 X82.224 Y82.665 E3.84111
G1 X81.98 Y82.909 E3.85845
G1 X79.623 Y80.553 E4.02589
G1 X79.516 Y80.934 E4.04577
G1 X81.736 Y83.154 E4.20352
G1 X81.493 Y83.399 E4.22087
G1 X79.409 Y81.315 E4.36894
G1 X79.301 Y81.695 E4.38882
G1 X81.249 Y83.643 E4.5272
G1 X81.005 Y83.888 E4.54455
G1 X79.194 Y82.076 E4.67326
G1 X79.087 Y82.457 E4.69314
G1 X80.762 Y84.132 E4.81216
G1 X80.518 Y84.377 E4.82951
G1 X78.979 Y82.838 E4.93885
G1 X78.872 Y83.219 E4.95873
G1 X80.275 Y84.622 E5.05839
G1 X80.031 Y84.866 E5.07573
G1 X78.765 Y83.6 E5.16571
G1 X78.657 Y83.981 E5.18559
G1 X79.787 Y85.111 E5.26588
G1 X79.544 Y85.356 E5.28323
G1 X78.55 Y84.362 E5.35384
G1 X78.442 Y84.743 E5.37372
G1 X79.41 Y85.71 E5.44245
G1 E3.44245 F2400
G92 E0
G1 X80.169 Y95.141 F7800
G1 E2 F2400
;TYPE:Perimeter
;WIDTH:0.42
G1 F1800
G1 X80.304 Y95.279 E2.0097
G1 X80.597 Y95.407 E2.02572
G1 X80.953 Y95.413 E2.0436
G1 X81.237 Y95.303 E2.0589
G1 X81.439 Y95.134 E2.07209
G1 X84.344 Y91.814 E2.29353
G1 X84.504 Y91.545 E2.30924
G1 X84.555 Y91.212 E2.32612
G1 X87.695 Y82.658 E2.78342
G1 X89.727 Y82.665 E2.88538
G1 X89.931 Y82.642 E2.89569
G1 X90.273 Y82.665 E2.91292
G1 X92.305 Y82.658 E3.01488
G1 X95.445 Y91.212 E3.47218
G1 X95.496 Y91.545 E3.48906
G1 X95.656 Y91.814 E3.50478
G1 X98.561 Y95.134 E3.72621
G1 X98.763 Y95.303 E3.73941
G1 X99.047 Y95.413 E3.7547
G1 X99.403 Y95.407 E3.77258
G1 X99.696 Y95.279 E3.7886
G1 X99.901 Y95.082 E3.80287
G1 X100.233 Y94.703 E3.82816
G1 X101.944 Y92.049 E3.98662
G1 X102.035 Y92.233 E3.99691
G1 X102.381 Y92.599 E4.02219
G1 X102.864 Y92.763 E4.04779
G1 X103.009 Y92.757 E4.05509
G1 X103.308 Y92.661 E4.07083
G1 X104.053 Y92.259 E4.11331
G1 X104.31 Y93.263 E4.16531
G1 X104.464 Y93.484 E4.17884
G1 X104.786 Y93.708 E4.19855
G1 X105.506 Y93.767 E4.2348
G1 X105.762 Y93.673 E4.24849
G1 X104.661 Y97.239 E4.43575
G1 X104.431 Y98.084 E4.47971
G1 X97.456 Y102.837 E4.90333
G1 X90.095 Y100.848 E5.28597
G1 X89.774 Y100.873 E5.30213
G1 X82.545 Y102.837 E5.67809
G1 X75.569 Y98.084 E6.10172
G1 X75.527 Y97.847 E6.11376
G1 X74.238 Y93.673 E6.33301
G1 X74.494 Y93.767 E6.34669
G1 X75.214 Y93.708 E6.38295
G1 X75.338 Y93.638 E6.39011
G1 X75.628 Y93.371 E6.40988
G1 X75.754 Y93.084 E6.42562
G1 X75.947 Y92.259 E6.46813
G1 X76.868 Y92.732 E6.5201
G1 X77.136 Y92.763 E6.53362
G1 X77.619 Y92.599 E6.55922
G1 X77.965 Y92.233 E6.58451
G1 X78.056 Y92.049 E6.59479
G1 X79.767 Y94.703 E6.75326
G1 X80.127 Y95.098 E6.78007
G1 X80.421 Y94.905 F7800
G1 F1800
G1 X80.565 Y95.032 E6.78973
G1 X80.784 Y95.084 E6.80102
G1 X80.98 Y95.048 E6.81102
G1 X81.179 Y94.907 E6.82325
G1 X83.949 Y91.742 E7.03435
G1 X84.167 Y91.458 E7.05232
G1 X84.208 Y91.155 E7.06764
G1 X87.455 Y82.312 E7.54038
G1 X89.728 Y82.321 E7.65448
G1 X89.968 Y82.263 E7.66686
G1 X90.272 Y82.321 E7.6824
G1 X92.545 Y82.312 E7.7965
G1 X95.771 Y91.099 E8.26624
G1 X95.798 Y91.352 E8.27903
G1 X95.915 Y91.587 E8.29217
G1 X98.876 Y94.962 E8.51749
G1 X99.112 Y95.074 E8.53061
G1 X99.326 Y95.071 E8.54134
G1 X99.571 Y94.937 E8.55534
G1 X99.943 Y94.516 E8.58354
G1 X101.983 Y91.352 E8.77245
G1 X102.344 Y92.079 E8.81319
G1 X102.551 Y92.299 E8.82835
G1 X102.878 Y92.418 E8.84582
G1 X103.145 Y92.357 E8.85953
G1 X104.286 Y91.742 E8.92461
G1 X104.582 Y93.004 E8.98965
G1 X104.688 Y93.218 E9.00169
G1 X104.956 Y93.408 E9.01814
G1 X105.388 Y93.443 E9.03989
G1 X106.297 Y93.111 E9.08849
G1 X104.802 Y97.949 E9.34265
G1 X104.757 Y98.279 E9.35938
G1 X97.516 Y103.211 E9.79902
G1 X90.136 Y101.206 E10.18284
G1 X89.864 Y101.206 E10.19645
G1 X82.475 Y103.207 E10.58066
G1 X75.243 Y98.279 E11.01982
G1 X75.198 Y97.949 E11.03655
G1 X73.703 Y93.111 E11.2907
G1 X74.612 Y93.443 E11.3393
G1 X75.044 Y93.408 E11.36106
G1 X75.28 Y93.253 E11.37522
G1 X75.418 Y93.005 E11.38944
G1 X75.714 Y91.742 E11.45457
G1 X76.855 Y92.357 E11.51962
G1 X77.035 Y92.415 E11.52909
G1 X77.356 Y92.351 E11.54553
G1 X77.656 Y92.079 E11.56587
G1 X78.017 Y91.352 E11.6066
G1 X80.057 Y94.516 E11.79552
G1 X80.257 Y94.711 E11.80954
G1 X80.376 Y94.865 E11.8193
G1 X80.649 Y94.666 F7800
;TYPE:External perimeter
G1 F1800
G1 X80.788 Y94.739 E11.82716
G1 X80.92 Y94.68 E11.8344
G1 X83.838 Y91.343 E12.05689
G1 X83.86 Y91.104 E12.06892
G1 X87.214 Y81.967 E12.55741
G1 X89.729 Y81.976 E12.68364
G1 X90 Y81.857 E12.69847
G1 X90.271 Y81.976 E12.7133
G1 X92.786 Y81.967 E12.83952
G1 X96.14 Y91.104 E13.32801
G1 X96.132 Y91.236 E13.33463
G1 X96.175 Y91.36 E13.3412
G1 X99.08 Y94.68 E13.56263
G1 X99.177 Y94.736 E13.56825
G1 X99.307 Y94.709 E13.5749
G1 X99.423 Y94.526 E13.58578
G1 X99.653 Y94.329 E13.60095
G1 X102.021 Y90.656 E13.82031
G1 X102.653 Y91.926 E13.8915
G1 X102.722 Y91.999 E13.89655
G1 X102.892 Y92.074 E13.9059
G1 X102.981 Y92.053 E13.91047
G1 X104.519 Y91.224 E13.99814
G1 X104.917 Y92.925 E14.0858
G1 X104.931 Y92.962 E14.08779
G1 X105.125 Y93.108 E14.09998
G1 X105.269 Y93.119 E14.10724
G1 X106.832 Y92.548 E14.19075
G1 X105.132 Y98.051 E14.47982
G1 X105.082 Y98.475 E14.50125
G1 X97.721 Y103.491 E14.94828
G1 X97.543 Y103.575 E14.95816
G1 X90.045 Y101.539 E15.34809
G1 X89.955 Y101.539 E15.35263
G1 X82.457 Y103.575 E15.74256
G1 X82.307 Y103.51 E15.75077
G1 X74.918 Y98.475 E16.1995
G1 X74.868 Y98.051 E16.22092
G1 X73.168 Y92.548 E16.51
G1 X74.731 Y93.119 E16.59351
G1 X74.875 Y93.108 E16.60076
G1 X74.999 Y93.037 E16.60793
G1 X75.082 Y92.927 E16.61488
G1 X75.481 Y91.224 E16.70262
G1 X77.019 Y92.053 E16.79028
G1 X77.054 Y92.068 E16.7922
G1 X77.186 Y92.051 E16.79885
G1 X77.347 Y91.926 E16.80913
G1 X77.979 Y90.656 E16.88032
G1 X80.347 Y94.329 E17.09968
G1 X80.577 Y94.526 E17.11485
G1 X80.622 Y94.613 E17.11977
G1 X80.637 Y94.822 F7800
G1 E15.11977 F2400
G92 E0
G1 X92.455 Y83.367 F7800
G1 E2 F2400
;TYPE:Solid infill
;WIDTH:0.42013
G1 F1800
G1 X92.006 Y82.918 E2.03189
G1 X91.52 Y82.92 E2.0563
G1 X92.477 Y83.877 E2.12426
G1 X92.76 Y84.648 E2.16549
G1 X91.034 Y82.921 E2.28806
G1 X90.547 Y82.923 E2.31246
G1 X93.043 Y85.419 E2.48965
G1 X93.326 Y86.19 E2.53088
G1 X90.033 Y82.897 E2.76468
G1 X89.572 Y82.924 E2.78787
G1 X93.609 Y86.961 E3.07449
G1 X93.892 Y87.731 E3.11572
G1 X89.082 Y82.922 E3.45722
G1 X88.592 Y82.92 E3.4818
G1 X94.175 Y88.502 E3.87815
G1 X94.458 Y89.273 E3.91939
G1 X88.103 Y82.918 E4.3706
G1 X87.875 Y82.917 E4.38202
G1 X87.805 Y83.109 E4.39224
G1 X94.741 Y90.044 E4.88469
G1 X95.024 Y90.815 E4.92592
G1 X87.674 Y83.465 E5.44775
G1 X87.543 Y83.822 E5.46684
G1 X95.525 Y91.804 E6.03355
G1 E4.03355 F2400
G92 E0
G1 X103.639 Y92.6 F7800
G1 E2 F2400
G1 F1800
G1 X103.937 Y92.897 E2.02112
G1 X103.996 Y93.148 E2.03404
G1 X104.076 Y93.374 E2.04612
G1 X104.158 Y93.517 E2.0544
G1 X104.294 Y93.681 E2.06507
G1 X104.53 Y93.86 E2.07994
G1 X104.676 Y93.943 E2.08835
G1 X105.01 Y93.97 E2.10519
G1 X105.308 Y94.268 E2.12635
G1 X105.193 Y94.641 E2.14594
G1 X103.437 Y92.885 E2.2706
G1 X103.203 Y92.981 E2.28329
G1 X103.071 Y93.008 E2.29003
G1 X105.078 Y95.014 E2.43247
G1 X104.962 Y95.386 E2.45205
G1 X102.498 Y92.922 E2.62701
G1 X102.355 Y92.881 E2.63451
G1 X102.242 Y92.817 E2.64101
G1 X101.953 Y92.512 E2.66212
G1 X101.815 Y92.727 E2.67495
G1 X104.847 Y95.759 E2.89027
G1 X104.732 Y96.132 E2.90986
G1 X101.623 Y93.023 E3.13058
G1 X101.432 Y93.32 E3.1483
G1 X104.617 Y96.505 E3.37442
G1 X104.502 Y96.878 E3.39401
G1 X101.241 Y93.617 E3.62553
G1 X101.05 Y93.913 E3.64326
G1 X104.387 Y97.25 E3.88018
G1 X104.271 Y97.623 E3.89977
G1 X100.858 Y94.21 E4.1421
G1 X100.667 Y94.507 E4.15982
G1 X104.134 Y97.973 E4.40597
G1 X103.844 Y98.171 E4.4236
G1 X100.476 Y94.803 E4.66272
G1 X100.254 Y95.07 E4.68011
G1 X103.553 Y98.369 E4.91436
G1 X103.263 Y98.567 E4.93199
G1 X100.025 Y95.328 E5.16191
G1 X99.841 Y95.493 E5.17429
G1 X99.752 Y95.543 E5.17945
G1 X102.973 Y98.764 E5.40815
G1 X102.683 Y98.962 E5.42578
G1 X99.249 Y95.528 E5.66958
G1 E3.66958 F2400
G92 E0
G1 X102.504 Y99.272 F7800
G1 E2 F2400
G1 F1800
G1 X87.412 Y84.179 E3.07155
G1 X87.281 Y84.536 E3.09064
G1 X102.102 Y99.358 E4.14296
G1 X101.812 Y99.555 E4.16059
G1 X87.15 Y84.893 E5.20161
G1 X87.019 Y85.25 E5.22069
G1 X101.522 Y99.753 E6.25041
G1 X101.232 Y99.951 E6.26804
G1 X86.888 Y85.607 E7.28646
G1 X86.757 Y85.964 E7.30555
G1 X100.942 Y100.148 E8.31266
G1 X100.651 Y100.346 E8.33029
G1 X86.626 Y86.321 E9.3261
G1 X86.495 Y86.678 E9.34519
G1 X100.361 Y100.544 E10.3297
G1 X100.071 Y100.742 E10.34733
G1 X86.364 Y87.035 E11.32054
G1 X86.233 Y87.391 E11.33963
G1 X99.781 Y100.939 E12.30154
G1 X99.491 Y101.137 E12.31917
G1 X86.102 Y87.748 E13.26977
G1 X85.971 Y88.105 E13.28886
G1 X99.2 Y101.335 E14.22817
G1 X98.91 Y101.533 E14.2458
G1 X85.84 Y88.462 E15.1738
G1 X85.709 Y88.819 E15.19289
G1 X98.62 Y101.73 E16.10959
G1 X98.33 Y101.928 E16.12722
G1 X85.578 Y89.176 E17.03263
G1 X85.447 Y89.533 E17.05171
G1 X98.04 Y102.126 E17.94581
G1 X97.75 Y102.324 E17.96344
G1 X85.316 Y89.89 E18.84624
G1 X85.185 Y90.247 E18.86533
G1 X97.459 Y102.521 E19.73683
G1 X97.408 Y102.556 E19.73992
G1 X96.856 Y102.406 E19.76865
G1 X85.054 Y90.604 E20.60663
G1 X84.923 Y90.961 E20.62571
G1 X96.186 Y102.224 E21.42542
G1 X95.516 Y102.042 E21.46028
G1 X84.804 Y91.33 E22.22085
G1 X84.793 Y91.477 E22.22827
G1 X84.706 Y91.719 E22.2412
G1 X94.846 Y101.86 E22.9612
G1 X94.176 Y101.678 E22.99605
G1 X84.513 Y92.014 E23.68218
G1 X84.285 Y92.274 E23.69954
G1 X93.507 Y101.496 E24.35428
G1 X92.837 Y101.314 E24.38913
G1 X84.057 Y92.535 E25.01247
G1 X83.829 Y92.795 E25.02983
G1 X92.167 Y101.132 E25.62178
G1 X91.497 Y100.95 E25.65663
G1 X83.602 Y93.055 E26.21717
G1 X83.374 Y93.315 E26.23453
G1 X90.827 Y100.768 E26.76368
G1 X90.178 Y100.607 E26.79725
G1 X83.146 Y93.576 E27.29649
G1 X82.919 Y93.836 E27.31385
G1 X89.706 Y100.623 E27.79577
G1 X89.322 Y100.728 E27.81573
G1 X82.691 Y94.096 E28.28657
G1 X82.463 Y94.356 E28.30393
G1 X88.939 Y100.832 E28.7637
G1 X88.555 Y100.936 E28.78366
G1 X82.236 Y94.616 E29.23235
G1 X82.008 Y94.877 E29.24971
G1 X88.171 Y101.04 E29.68733
G1 X87.788 Y101.145 E29.70729
G1 X81.78 Y95.137 E30.13383
G1 X81.54 Y95.385 E30.15116
G1 X87.404 Y101.249 E30.56752
G1 X87.02 Y101.353 E30.58748
G1 X81.252 Y95.584 E30.99705
G1 X81.002 Y95.668 E31.01027
G1 X80.86 Y95.68 E31.01744
G1 X86.763 Y101.584 E31.43658
G1 E29.43658 F2400
G92 E0
G1 X79.212 Y94.033 F7800
G1 E2 F2400
G1 F1800
G1 X77.874 Y92.695 E2.09501
G1 X77.758 Y92.817 E2.10348
G1 X77.589 Y92.897 E2.11288
G1 X86.253 Y101.561 E2.72803
G1 X85.869 Y101.666 E2.74799
G1 X77.21 Y93.006 E3.36283
G1 X77.153 Y93.022 E3.36576
G1 X76.958 Y93.014 E3.37557
G1 X76.797 Y92.981 E3.38383
G1 X76.629 Y92.913 E3.39294
G1 X85.486 Y101.77 E4.02178
G1 X85.102 Y101.874 E4.04174
G1 X76.075 Y92.847 E4.68265
G1 X75.974 Y93.234 E4.70273
G1 X84.718 Y101.978 E5.32358
G1 X84.334 Y102.083 E5.34354
G1 X75.809 Y93.557 E5.94886
G1 X75.706 Y93.681 E5.95695
G1 X75.558 Y93.794 E5.9663
G1 X83.951 Y102.187 E6.5622
G1 X83.567 Y102.291 E6.58216
G1 X75.227 Y93.951 E7.17433
G1 X74.776 Y93.988 E7.19705
G1 X83.183 Y102.395 E7.79399
G1 X82.8 Y102.5 E7.81396
G1 X74.747 Y94.447 E8.38566
G1 X74.966 Y95.153 E8.42276
G1 X81.89 Y102.078 E8.91441
G1 X80.359 Y101.035 E9.00745
G1 X75.184 Y95.86 E9.37488
G1 X75.402 Y96.566 E9.41198
G1 X78.827 Y99.991 E9.6552
G1 X77.296 Y98.948 E9.74824
G1 X75.385 Y97.037 E9.88393
G1 E7.88393 F2400
G92 E0
G1 X97.588 Y78.29 F7800
G1 E2 F2400
;TYPE:Perimeter
;WIDTH:0.42
G1 F1800
G1 X97.6 Y78.27 E2.00116
G1 X97.756 Y78.47 E2.01385
G1 X97.918 Y78.575 E2.02356
G1 X98.213 Y78.661 E2.03897
G1 X98.62 Y78.635 E2.05945
G1 X98.96 Y78.52 E2.07743
G1 X99.684 Y78.091 E2.1197
G1 X100.25 Y79.65 E2.20292
G1 X100.46 Y79.895 E2.21914
G1 X101.961 Y85.221 E2.49683
G1 X100.598 Y85.864 E2.57248
G1 X96.083 Y81.331 E2.89358
G1 X96.153 Y78.403 E3.04054
G1 X96.339 Y78.545 E3.05228
G1 X96.826 Y78.722 E3.07825
G1 X97.151 Y78.673 E3.09478
G1 X97.461 Y78.481 E3.11306
G1 X97.555 Y78.34 E3.12157
G1 X97.306 Y78.104 F7800
G1 F1800
G1 X97.349 Y78.037 E3.12559
G1 X97.563 Y77.448 E3.15701
G1 X97.831 Y78.014 E3.18843
G1 X97.975 Y78.203 E3.20038
G1 X98.132 Y78.292 E3.2094
G1 X98.364 Y78.318 E3.22112
G1 X98.784 Y78.224 E3.24273
